X:1
T:An Comhra Donn
T:The Brown Coffin
T:An Cofra Donn
T:The Brown Chest
C:Traditional
R:Hornpipe
B:Music for the Sets ‑ The Blue Book, David J Taylor
Z:Gordon Turnbull
M:C
K:D
A>BA>G F>Ad>e | f>gf>e d>cd>A | B>Gd>B A>FD>E | F>EE>D E2 F>G |
A>BA>G F>Ad>e | f>gf>e d>cd>A | B>cd>B A>FE>G | [1 F2 D2 D2 F>G:|[2 F2 D2D2 f>g ||
a>fe>d g>fe>c | d>cd>e f>dA>F | G>AB>G F>Ad>e | (3fed g>f e2 f>g |
a>g (3fed g>fe>c | d>cd>e f>dA>F | G>AB>G F>AE>G | [1 F2 D2 D2 f>g:|[2 F2D2 D2 F>G |]
..........................
[COMICAL_CORNER]: COMICAL CORNER. English, Country Dance Tune (2/4 time). G Major. Standard tuning. AABB. The melody also appears (in 4/4 time) in the 1842 music manuscript collection of Cumbrian musician John Rook. William Vickers printed a different tune by the same name in his 1770 collection. Thompson (Compleat Collection of 200 Favourite Country Dances, vol. 2), 1765; No. 11
